X: 522
T: Lady Harriet Cavendish's fancy
R: reel
B: "Preston's Twenty Four Country Dances for the Year 1804", Tho. Preston, ed. p.221
F: http://imslp.org/wiki/24_Country_Dances_for_the_Year_1804_(Preston_(publisher),_Thomas)
M: 2/4
L: 1/16
K: Bb
Bc |\
d2B2 B2Bc | d2B2 B4 | (ed).e.f (ed).c.B | (AB).c.B A2 AB |\
c2A2 A2AB | c2A2 A2fe | (dc).d.e (cB).c.d | [B2F2][B2F2][B2F2] :|
|: Bc |\
d2b2b2b2 | b2f2-f2d2 | .B2.B2.c2.c2 | (de).f.e d2(Bc) |\
d2b2b2b2 | b2f2-f2d2 | B2B2 {d}(cB).c.d | B2B2B2 :|
% - - - - - - - - - - - - - - - - - - - - - - - - -
%%begintext align
%% 1st & 2d Cu. set & change sides, back again, lead
%% down the middle, up again & Allemande.
%%endtext

%%sep 1 1 500
